upholstery/frontseat_back.blend_page7.svg

<?xml version="1.0" encoding="UTF-8" standalone="no"?>
<svg
   version="1.1"
   width="300.00mm"
   height="600.00mm"
   viewBox="0 0 300.00 600.00"
   id="svg4403"
   sodipodi:docname="frontseat_back.blend_page7.svg"
   inkscape:version="1.1.1 (c3084ef, 2021-09-22)"
   xmlns:inkscape="http://www.inkscape.org/namespaces/inkscape"
   xmlns:sodipodi="http://sodipodi.sourceforge.net/DTD/sodipodi-0.dtd"
   xmlns="http://www.w3.org/2000/svg"
   xmlns:svg="http://www.w3.org/2000/svg">
  <defs
     id="defs4407" />
  <sodipodi:namedview
     id="namedview4405"
     pagecolor="#ffffff"
     bordercolor="#666666"
     borderopacity="1.0"
     inkscape:pageshadow="2"
     inkscape:pageopacity="0.0"
     inkscape:pagecheckerboard="0"
     inkscape:document-units="mm"
     showgrid="false"
     inkscape:zoom="0.30608116"
     inkscape:cx="436.15883"
     inkscape:cy="1664.5912"
     inkscape:window-width="1296"
     inkscape:window-height="975"
     inkscape:window-x="0"
     inkscape:window-y="25"
     inkscape:window-maximized="0"
     inkscape:current-layer="svg4403" />
  <style
     type="text/css"
     id="style4303">
    path {
        fill: none;
        stroke-linecap: butt;
        stroke-linejoin: bevel;
        stroke-dasharray: none;
    }
    path.outer {
        stroke: #000000;
        stroke-dasharray: none;
        stroke-dashoffset: 0;
        stroke-width: 0.3;
        stroke-opacity: 1.0;
    }
    path.convex {
        stroke: #000000;
        stroke-dasharray: 0.50,1.00;
        stroke-dashoffset:0;
        stroke-width:0.2;
        stroke-opacity: 1.0
    }
    path.concave {
        stroke: #000000;
        stroke-dasharray: 1.00,0.50,0.20,0.50;
        stroke-dashoffset: 0;
        stroke-width: 0.2;
        stroke-opacity: 1.0
    }
    path.freestyle {
        stroke: #000000;
        stroke-dasharray: none;
        stroke-dashoffset: 0;
        stroke-width: 0.2;
        stroke-opacity: 1.0
    }
    path.outer_background {
        stroke: #ffffff;
        stroke-opacity: 1.0;
        stroke-width: 0.5
    }
    path.inner_background {
        stroke: #ffffff;
        stroke-opacity: 1.0;
        stroke-width: 0.2
    }
    path.sticker {
        fill: #e5e5e5;
        stroke: none;
        fill-opacity: 1.0;
    }
    path.arrow {
        fill: #000000;
    }
    text {
        font-style: normal;
        fill: #000000;
        fill-opacity: 1.0;
        stroke: none;
    }
    text, tspan {
        text-anchor:middle;
    }
    </style>
  <g
     id="g4401">
    <text
       transform="translate(118.05189121514559 218.32818258553743)"
       style="font-size:10.00"
       id="text4307"><tspan
         id="tspan4305">[7] I 7</tspan></text>
    <path
       class="sticker"
       d="m 122.51104,180.68567 0.21167,-9.99901 97.08146,0.52991 0.10251,10.00071 z m -105.383268,-0.57522 0.211671,-9.99901 105.069087,0.57352 0.10251,10.00071 z m -0.26609,48.74927 -9.998992,-0.21166 0.117615,-21.54869 10.000705,-0.10252 z m -0.798285,146.24782 -9.998992,-0.21167 0.412404,-75.55664 10.000721,-0.10249 z m 203.843283,-193.89026 9.99899,0.21168 -1.06266,194.68291 -10.00071,0.10251 z M 16.47753,299.23674 6.478523,299.02505 6.860976,228.96224 16.861682,228.85972 Z m 0.50348,-92.23989 -9.998992,-0.21165 0.145033,-26.57226 10.000721,-0.10249 z m 200.79692,364.2146 -0.21167,9.99898 -97.08146,-0.52989 -0.1025,-10.0007 z m -97.39563,-0.53161 -0.21168,9.99898 -105.069093,-0.57349 -0.102505,-10.00071 z M 15.145783,543.21819 5.146791,543.00653 5.264406,521.45785 15.265112,521.35536 Z m 0.503496,-92.23983 -9.999007,-0.21168 0.412419,-75.55664 10.000706,-0.1025 z m 203.193021,-74.76398 9.999,0.21167 -0.19749,194.68288 -10.86588,0.10252 z M 15.265112,521.35536 5.26612,521.14367 5.648558,451.08082 15.649279,450.97836 Z m -0.26609,48.74926 -9.998992,-0.21168 0.145033,-26.57226 10.00072,-0.10249 z"
       id="path4309"
       sodipodi:nodetypes="cccccccccccccccccccccccccccccccccccccccccccccccccccccccccccccccccccccc" />
    <path
       class="outer"
       d=" M 6.982018 206.785197 L 7.127051 180.212940 L 17.127772 180.110450 L 17.339443 170.111443 L 122.408529 170.684959 L 122.511041 180.685665 L 122.722712 170.686658 L 219.804172 171.216573 L 219.906677 181.217278 L 219.759916 208.103712 L 219.640587 229.966576 L 219.256436 300.343568 L 229.255428 300.555254 L 228.843008 376.111875 L 218.842302 376.214380 L 228.841295 376.426051 L 228.428875 451.982672 L 218.428169 452.085192 L 218.044017 522.462185 L 217.924689 544.325019 L 217.777927 571.211453 L 217.566256 581.210430 L 120.484804 580.680544 L 120.382299 570.679839 L 120.170620 580.678816 L 15.101527 580.105330 L 14.999022 570.104624 L 5.000030 569.892938 L 5.145063 543.320681 L 15.145783 543.218191 L 5.146791 543.006535 L 5.264406 521.457846 L 15.265112 521.355356 L 5.266120 521.143670 L 5.648558 451.080824 L 15.649279 450.978364 L 5.650272 450.766678 L 6.062691 375.210042 L 16.063397 375.107537 L 6.064405 374.895866 L 6.476809 299.339230 L 16.477530 299.236740 L 6.478523 299.025054 L 6.860976 228.962238 L 16.861682 228.859718 L 6.862690 228.648062 L 6.980305 207.099373 L 16.981010 206.996853 Z "
       id="path4311" />
    <g
       id="g4319">
      <path
         transform="matrix(9.999851 0.054584 -0.054584 9.999851 171.208863 180.951471)"
         class="arrow"
         d="M 0 0 L 1 1 L 0 0.25 L -1 1 Z"
         id="path4313" />
      <text
         transform="translate(171.159734 193.951334)"
         style="font-size:10.00"
         id="text4317"><tspan
           id="tspan4315">1</tspan></text>
    </g>
    <text
       transform="matrix(0.999985 0.005458 -0.005458 0.999985 171.218683 179.151501)"
       style="font-size:9.00"
       id="text4323"><tspan
         id="tspan4321">18:1</tspan></text>
    <g
       id="g4331">
      <path
         transform="matrix(9.999851 0.054582 -0.054582 9.999851 69.819410 180.398042)"
         class="arrow"
         d="M 0 0 L 1 1 L 0 0.25 L -1 1 Z"
         id="path4325" />
      <text
         transform="translate(69.770289 193.397905)"
         style="font-size:10.00"
         id="text4329"><tspan
           id="tspan4327">2</tspan></text>
    </g>
    <text
       transform="matrix(0.999985 0.005458 -0.005458 0.999985 69.829230 178.598071)"
       style="font-size:9.00"
       id="text4335"><tspan
         id="tspan4333">18:2</tspan></text>
    <g
       id="g4343">
      <path
         transform="matrix(-0.054583 9.999851 -9.999851 -0.054583 219.049369 338.279004)"
         class="arrow"
         d="M 0 0 L 1 1 L 0 0.25 L -1 1 Z"
         id="path4337" />
      <text
         transform="translate(210.049500 342.229898)"
         style="font-size:10.00"
         id="text4341"><tspan
           id="tspan4339">3</tspan></text>
    </g>
    <text
       transform="matrix(-0.005458 0.999985 -0.999985 -0.005458 220.849340 338.288809)"
       style="font-size:9.00"
       id="text4347"><tspan
         id="tspan4345">17:3</tspan></text>
    <g
       id="g4355">
      <path
         transform="matrix(0.054582 -9.999851 9.999851 0.054582 17.054399 193.553652)"
         class="arrow"
         d="M 0 0 L 1 1 L 0 0.25 L -1 1 Z"
         id="path4349" />
      <text
         transform="translate(26.054264 197.602774)"
         style="font-size:10.00"
         id="text4353"><tspan
           id="tspan4351">4</tspan></text>
    </g>
    <text
       transform="matrix(0.005458 -0.999985 0.999985 0.005458 15.254428 193.543817)"
       style="font-size:9.00"
       id="text4359"><tspan
         id="tspan4357">6.:4</tspan></text>
    <g
       id="g4367">
      <path
         transform="matrix(-9.999851 -0.054582 0.054582 -9.999851 169.080113 570.945646)"
         class="arrow"
         d="M 0 0 L 1 1 L 0 0.25 L -1 1 Z"
         id="path4361" />
      <text
         transform="translate(169.129242 565.945781)"
         style="font-size:10.00"
         id="text4365"><tspan
           id="tspan4363">5</tspan></text>
    </g>
    <text
       transform="matrix(-0.999985 -0.005458 0.005458 -0.999985 169.070278 572.745617)"
       style="font-size:9.00"
       id="text4371"><tspan
         id="tspan4369">19:5</tspan></text>
    <g
       id="g4379">
      <path
         transform="matrix(-9.999851 -0.054582 0.054582 -9.999851 67.690660 570.392217)"
         class="arrow"
         d="M 0 0 L 1 1 L 0 0.25 L -1 1 Z"
         id="path4373" />
      <text
         transform="translate(67.739782 565.392352)"
         style="font-size:10.00"
         id="text4377"><tspan
           id="tspan4375">6.</tspan></text>
    </g>
    <text
       transform="matrix(-0.999985 -0.005458 0.005458 -0.999985 67.680840 572.192187)"
       style="font-size:9.00"
       id="text4383"><tspan
         id="tspan4381">19:6.</tspan></text>
    <g
       id="g4391">
      <path
         transform="matrix(-0.054583 9.999851 -9.999851 -0.054583 218.635236 414.149771)"
         class="arrow"
         d="M 0 0 L 1 1 L 0 0.25 L -1 1 Z"
         id="path4385" />
      <text
         transform="translate(209.635367 418.100636)"
         style="font-size:10.00"
         id="text4389"><tspan
           id="tspan4387">7</tspan></text>
    </g>
    <text
       transform="matrix(-0.005458 0.999985 -0.999985 -0.005458 220.435207 414.159591)"
       style="font-size:9.00"
       id="text4395"><tspan
         id="tspan4393">17:7</tspan></text>
    <text
       transform="matrix(0.005458 -0.999985 0.999985 0.005458 13.272439 556.651588)"
       style="font-size:9.00"
       id="text4399"><tspan
         id="tspan4397">6.:7</tspan></text>
  </g>
</svg>

<?xml version='1.0' encoding='UTF-8' standalone='no'?>
    <svg xmlns='http://www.w3.org/2000/svg' xmlns:xlink='http://www.w3.org/1999/xlink' version='1.1'
    width='300.00mm' height='600.00mm' viewBox='0 0 300.00 600.00'>
<style type="text/css">
    path {
        fill: none;
        stroke-linecap: butt;
        stroke-linejoin: bevel;
        stroke-dasharray: none;
    }
    path.outer {
        stroke: #000000;
        stroke-dasharray: none;
        stroke-dashoffset: 0;
        stroke-width: 0.3;
        stroke-opacity: 1.0;
    }
    path.convex {
        stroke: #000000;
        stroke-dasharray: 0.50,1.00;
        stroke-dashoffset:0;
        stroke-width:0.2;
        stroke-opacity: 1.0
    }
    path.concave {
        stroke: #000000;
        stroke-dasharray: 1.00,0.50,0.20,0.50;
        stroke-dashoffset: 0;
        stroke-width: 0.2;
        stroke-opacity: 1.0
    }
    path.freestyle {
        stroke: #000000;
        stroke-dasharray: none;
        stroke-dashoffset: 0;
        stroke-width: 0.2;
        stroke-opacity: 1.0
    }
    path.outer_background {
        stroke: #ffffff;
        stroke-opacity: 1.0;
        stroke-width: 0.5
    }
    path.inner_background {
        stroke: #ffffff;
        stroke-opacity: 1.0;
        stroke-width: 0.2
    }
    path.sticker {
        fill: #e5e5e5;
        stroke: none;
        fill-opacity: 1.0;
    }
    path.arrow {
        fill: #000000;
    }
    text {
        font-style: normal;
        fill: #000000;
        fill-opacity: 1.0;
        stroke: none;
    }
    text, tspan {
        text-anchor:middle;
    }
    </style>
<g>
<text transform='translate(118.05189121514559 218.32818258553743)' style='font-size:10.00'><tspan>[7] I 7</tspan></text>
<path class='sticker' d=' M 122.511041 180.685665 L 122.722712 170.686658 L 219.804172 171.216573 L 219.906677 181.217278 Z
M 17.127772 180.110450 L 17.339443 170.111443 L 122.408529 170.684959 L 122.511041 180.685665 Z
M 16.861682 228.859718 L 6.862690 228.648062 L 6.980305 207.099373 L 16.981010 206.996853 Z
M 16.063397 375.107537 L 6.064405 374.895866 L 6.476809 299.339230 L 16.477530 299.236740 Z
M 219.256436 300.343568 L 229.255428 300.555254 L 228.843008 376.111875 L 218.842302 376.214380 Z
M 16.477530 299.236740 L 6.478523 299.025054 L 6.860976 228.962238 L 16.861682 228.859718 Z
M 16.981010 206.996853 L 6.982018 206.785197 L 7.127051 180.212940 L 17.127772 180.110450 Z
M 217.777927 571.211453 L 217.566256 581.210430 L 120.484804 580.680544 L 120.382299 570.679839 Z
M 120.382299 570.679839 L 120.170620 580.678816 L 15.101527 580.105330 L 14.999022 570.104624 Z
M 15.145783 543.218191 L 5.146791 543.006535 L 5.264406 521.457846 L 15.265112 521.355356 Z
M 15.649279 450.978364 L 5.650272 450.766678 L 6.062691 375.210042 L 16.063397 375.107537 Z
M 218.842302 376.214380 L 228.841295 376.426051 L 228.428875 451.982672 L 218.428169 452.085192 Z
M 15.265112 521.355356 L 5.266120 521.143670 L 5.648558 451.080824 L 15.649279 450.978364 Z
M 14.999022 570.104624 L 5.000030 569.892938 L 5.145063 543.320681 L 15.145783 543.218191 Z '/>
<path class='outer' d=' M 6.982018 206.785197 L 7.127051 180.212940 L 17.127772 180.110450 L 17.339443 170.111443 L 122.408529 170.684959 L 122.511041 180.685665 L 122.722712 170.686658 L 219.804172 171.216573 L 219.906677 181.217278 L 219.759916 208.103712 L 219.640587 229.966576 L 219.256436 300.343568 L 229.255428 300.555254 L 228.843008 376.111875 L 218.842302 376.214380 L 228.841295 376.426051 L 228.428875 451.982672 L 218.428169 452.085192 L 218.044017 522.462185 L 217.924689 544.325019 L 217.777927 571.211453 L 217.566256 581.210430 L 120.484804 580.680544 L 120.382299 570.679839 L 120.170620 580.678816 L 15.101527 580.105330 L 14.999022 570.104624 L 5.000030 569.892938 L 5.145063 543.320681 L 15.145783 543.218191 L 5.146791 543.006535 L 5.264406 521.457846 L 15.265112 521.355356 L 5.266120 521.143670 L 5.648558 451.080824 L 15.649279 450.978364 L 5.650272 450.766678 L 6.062691 375.210042 L 16.063397 375.107537 L 6.064405 374.895866 L 6.476809 299.339230 L 16.477530 299.236740 L 6.478523 299.025054 L 6.860976 228.962238 L 16.861682 228.859718 L 6.862690 228.648062 L 6.980305 207.099373 L 16.981010 206.996853 Z '/>
<g><path transform='matrix(9.999851 0.054584 -0.054584 9.999851 171.208863 180.951471)' class='arrow' d='M 0 0 L 1 1 L 0 0.25 L -1 1 Z'/><text transform='translate(171.159734 193.951334)' style='font-size:10.00'><tspan>1</tspan></text></g>
<text transform='matrix(0.999985 0.005458 -0.005458 0.999985 171.218683 179.151501)' style='font-size:9.00'><tspan>18:1</tspan></text>
<g><path transform='matrix(9.999851 0.054582 -0.054582 9.999851 69.819410 180.398042)' class='arrow' d='M 0 0 L 1 1 L 0 0.25 L -1 1 Z'/><text transform='translate(69.770289 193.397905)' style='font-size:10.00'><tspan>2</tspan></text></g>
<text transform='matrix(0.999985 0.005458 -0.005458 0.999985 69.829230 178.598071)' style='font-size:9.00'><tspan>18:2</tspan></text>
<g><path transform='matrix(-0.054583 9.999851 -9.999851 -0.054583 219.049369 338.279004)' class='arrow' d='M 0 0 L 1 1 L 0 0.25 L -1 1 Z'/><text transform='translate(210.049500 342.229898)' style='font-size:10.00'><tspan>3</tspan></text></g>
<text transform='matrix(-0.005458 0.999985 -0.999985 -0.005458 220.849340 338.288809)' style='font-size:9.00'><tspan>17:3</tspan></text>
<g><path transform='matrix(0.054582 -9.999851 9.999851 0.054582 17.054399 193.553652)' class='arrow' d='M 0 0 L 1 1 L 0 0.25 L -1 1 Z'/><text transform='translate(26.054264 197.602774)' style='font-size:10.00'><tspan>4</tspan></text></g>
<text transform='matrix(0.005458 -0.999985 0.999985 0.005458 15.254428 193.543817)' style='font-size:9.00'><tspan>6.:4</tspan></text>
<g><path transform='matrix(-9.999851 -0.054582 0.054582 -9.999851 169.080113 570.945646)' class='arrow' d='M 0 0 L 1 1 L 0 0.25 L -1 1 Z'/><text transform='translate(169.129242 565.945781)' style='font-size:10.00'><tspan>5</tspan></text></g>
<text transform='matrix(-0.999985 -0.005458 0.005458 -0.999985 169.070278 572.745617)' style='font-size:9.00'><tspan>19:5</tspan></text>
<g><path transform='matrix(-9.999851 -0.054582 0.054582 -9.999851 67.690660 570.392217)' class='arrow' d='M 0 0 L 1 1 L 0 0.25 L -1 1 Z'/><text transform='translate(67.739782 565.392352)' style='font-size:10.00'><tspan>6.</tspan></text></g>
<text transform='matrix(-0.999985 -0.005458 0.005458 -0.999985 67.680840 572.192187)' style='font-size:9.00'><tspan>19:6.</tspan></text>
<g><path transform='matrix(-0.054583 9.999851 -9.999851 -0.054583 218.635236 414.149771)' class='arrow' d='M 0 0 L 1 1 L 0 0.25 L -1 1 Z'/><text transform='translate(209.635367 418.100636)' style='font-size:10.00'><tspan>7</tspan></text></g>
<text transform='matrix(-0.005458 0.999985 -0.999985 -0.005458 220.435207 414.159591)' style='font-size:9.00'><tspan>17:7</tspan></text>
<text transform='matrix(0.005458 -0.999985 0.999985 0.005458 13.272439 556.651588)' style='font-size:9.00'><tspan>6.:7</tspan></text>
</g>
</svg>
